!!!COM: Music21
!!!OTL: Aforamento dunha "JOTA" de auga nun micromatraz
!!!OMV: pezas_jotas_aforamento-dunha-jota-de-auga-nun-micromatraz_aforamento-dunha-jota-de-auga-nun-micromatraz-partitura.musicxml
**kern
*I"Gaita
*I'Bag
*clefG^2
*k[]
*M3/8
*MM117
=1
!LO:TX:a:t=[quarter-dot]=78
8r
8ggL
8ggJ
=||
8eeL
16ccL
16dd
16ee
16ffJJ
=
16ggLL
16cc
16dd
16cc
16ee
16ccJJ
=
8ggL
16cccL
16ddd
16ccc
16aaJJ
=
16bbLL
16ccc
16bb
16ee
16bb
16aaJJ
=
16eeLL
16aa
16gg
16eeJ
[8ffJ
=
8ffL]
8ff
8ffJ
!!linebreak:original
=
8ddL
16bL
16dd
16ff
16bbJJ
=
8bbL
16dddL
16ccc
16bb
16cccJJ
=
16aaLL
16ccc
16gg
16ee
16ff
16bbJJ
=
16ffLL
16dd
16ee
16ffJ
[8ggJ
=
8ggL]
8gg
8ggJ
=
8eeL
16ccL
16dd
16ee
16ffJJ
=
16ggLL
16cc
16dd
16cc
16ee
16ccJJ
=
8ggL
16cccL
16ddd
16ccc
16aaJJ
!!linebreak:original
=
16bbLL
16ccc
16bb
16ee
16bb
16aaJJ
=
16eeLL
16bb
16aa
16aa-XJ
[8aanJ
=
8aaL]
16dddL
16ccc
16bb
16cccJJ
=
24ggLL
24aa
24gg
16ee
16gg
16ccc
16bbJJ
=
24aaLL
24bb
24aa
16gg
16aa
16ff
16bb-XJJ
=
16eeLL
16ff
16dd
16ee
16dd
16bJJ
!!linebreak:original
=
24aaLL
24bb
24aaJ
8gg
8ggJ
=
8ggL
8gg
8ggJ
=||
8eeL
16ccL
16dd
16ee
16ffJJ
=
16ggLL
16cc
16dd
16cc
16ee
16ccJJ
=
8ggL
16cccL
16ddd
16ccc
16aaJJ
=
16bbLL
16ccc
16bb
16ee
16bb
16aaJJ
=
16eeLL
16aa
16gg
16eeJ
[8ffJ
=
8ffL]
8ff
8ffJ
!!linebreak:original
=
8ddL
16bL
16dd
16ff
16bbJJ
=
8bbL
16dddL
16ccc
16bb
16cccJJ
=
16aaLL
16ccc
16gg
16ee
16ff
16bbJJ
=
16ffLL
16dd
16ee
16ffJ
[8ggJ
=
8ggL]
8gg
8ggJ
=
8eeL
16ccL
16dd
16ee
16ffJJ
=
16ggLL
16cc
16dd
16cc
16ee
16ccJJ
=
8ggL
16cccL
16ddd
16ccc
16aaJJ
!!linebreak:original
=
16bbLL
16ccc
16bb
16ee
16bb
16aaJJ
=
16eeLL
16bb
16aa
16aa-XJ
[8aanJ
=
8aaL]
16dddL
16ccc
16bb
16cccJJ
=
24ggLL
24aa
24gg
16ee
16gg
16ccc
16bbJJ
=
24aaLL
24bb
24aa
16gg
16aa
16ff
16bb-XJJ
=
16eeLL
16ff
16dd
16ee
16dd
16bJJ
=
[4.cc
!!linebreak:original
=
8ccL]
16dddL
16ccc
16bb
16ggJJ
=||
24ffLL
24gg
24ff
16dd
16ff
16ff
16bbJJ
=
16ddLL
16ff
16aa
16dd
16ff
16ggJJ
=
16bLL
16dd
16ff
16b
16dd
16bbJJ
!!linebreak:original
=
8bbL
16dddL
16ccc
16bb
16aaJJ
=
24ggLL
24aa
24gg
16ee
16gg
16gg
16cccJJ
=
16eeLL
16gg
16ccc
16ee
16gg
16aaJJ
=
16ccLL
16ee
16gg
16cc
16ee
16ggJJ
=
8ggL
16dddL
16ccc
16bb
16ggJJ
=
24ffLL
24gg
24ff
16dd
16ff
16ff
16bbJJ
=
16ddLL
16ff
16aa
16dd
16ff
16ggJJ
!!linebreak:original
=
16bLL
16dd
16ff
16b
16dd
16bbJJ
=
16aaLL
16aa-X
16aa-
16ddd
16ccc
16bbJJ
=
16cccLL
16gg
16ee
16gg
16ccc
16bbJJ
=
16aaLL
16bb
16gg
16aa
16ff
16ggJJ
=
16eeLL
16ff
16dd
16ee
16dd
16bJJ
=
24aaLL
24bb
24aa
16gg
16ggJ
8ggJ
!!linebreak:original
=
8ggL
16dddL
16ccc
16bb
16ggJJ
=||
24ffLL
24gg
24ff
16dd
16ff
16ff
16bbJJ
=
16ddLL
16ff
16aa
16dd
16ff
16ggJJ
=
16bLL
16dd
16ff
16b
16dd
16bbJJ
!!pagebreak:original
=
8bbL
16dddL
16ccc
16bb
16aaJJ
=
24ggLL
24aa
24gg
16ee
16gg
16gg
16cccJJ
=
16eeLL
16gg
16ccc
16ee
16gg
16aaJJ
=
16ccLL
16ee
16gg
16cc
16ee
16ggJJ
=
8ggL
16dddL
16ccc
16bb
16ggJJ
=
24ffLL
24gg
24ff
16dd
16ff
16ff
16bbJJ
=
16ddLL
16ff
16aa
16dd
16ff
16ggJJ
!!linebreak:original
=
16bLL
16dd
16ff
16b
16dd
16bbJJ
=
16aaLL
16aa-X
16aa-
16ddd
16ccc
16bbJJ
=
16cccLL
16gg
16ee
16gg
16ccc
16bbJJ
=
16aaLL
16bb
16gg
16aa
16ff
16ggJJ
=
16eeLL
16ff
16dd
16ee
16dd
16bJJ
=
[4.cc
=||
*k[b-]
8ccL]
8ccc
8aaJ
!!linebreak:original
=||
16bb-LL
16ddd
16ccc
16aaJ
8bb-J
=
16ggLL
16bb-
16ee
16gg
16cc
16eeJJ
=
16ggLL
16bb-
16aa
16gg
16aa
16cccJJ
=
16ggLL
16cccJJ
[4ff
=
16ffLL]
16ff
16ff
16aa
16gg
16ffJJ
!!linebreak:original
=
8ffL
16eeL
16dd
16dd
16ggJJ
=
16ccLL
16ee
16gg
16bb-
16aa
16aa-XJJ
=
[4.aa
=
8aaL]
8ccc
8aaJ
=
16bb-LL
16ddd
16ccc
16aaJ
8bb-J
=
16ggLL
16bb-
16ee
16gg
16cc
16eeJJ
=
16ggLL
16bb-
16aa
16gg
16aa
16cccJJ
=
16ggLL
16cccJJ
[4ff
!!linebreak:original
=
16ffLL]
16ff
16ff
16aa
16gg
16ffJJ
=
8ffL
16eeL
16dd
16dd
16ggJJ
=
16ccLL
16ee
16gg
16bb-
16gg
16eeJJ
=
[4.ff
=
8ffL]
8ccc
8aaJ
=||
16bb-LL
16ddd
16ccc
16aaJ
8bb-J
=
16ggLL
16bb-
16ee
16gg
16cc
16eeJJ
=
16ggLL
16bb-
16aa
16gg
16aa
16cccJJ
!!linebreak:original
=
16ggLL
16cccJJ
[4ff
=
16ffLL]
16ff
16ff
16aa
16gg
16ffJJ
!!linebreak:original
=
8ffL
16eeL
16dd
16dd
16ggJJ
=
16ccLL
16ee
16gg
16bb-
16aa
16aa-XJJ
=
[4.aa
=
8aaL]
8ccc
8aaJ
=
16bb-LL
16ddd
16ccc
16aaJ
8bb-J
=
16ggLL
16bb-
16ee
16gg
16cc
16eeJJ
=
16ggLL
16bb-
16aa
16gg
16aa
16cccJJ
=
16ggLL
16cccJJ
[4ff
!!linebreak:original
=
16ffLL]
16ff
16ff
16aa
16gg
16ffJJ
=
8ffL
16eeL
16dd
16dd
16ggJJ
=
16ccLL
16ee
16gg
16bb-
16gg
16eeJJ
=
16ccLL
16ee
16ccc
16ddd
16ccc
16eeJJ
=
[4.ff
=
8ffL]
8gg
8ggJ
==
*-
